X: 28548
T: Munsters Theme Song
R: polka
M: 2/4
K: Bminor
[|"Bm"B2d2|^efb2|"Em"gfe2-|e2fe|"Bm"d2ed|"A"cBA2|"Bm"B4|z4||
"Bm"B2d2|^efb2|"Em"gfe2-|e2de|"F#7"f2F2|F^G^A2|"Bm"B4|z2"A7"A2||
[|"A7"a2a2|a2=g2|fgef|"D"d4|"E"e2e2|"E7"e'3d'|"A"c'd'bc'|"F#7"^a4||
"Bm"B2d2|^efb2|"Em"gfe2-|e2fe|"Bm"dzB2|"F#7"z2fz|"Bm"b4|z4||

